X:252
T: O'Brien's March
N: O'Farrell's Pocket Companion v.3 (Sky ed. p.119)
N: "Irish"
M: 6/8
L: 1/8
R: jig
Q: 320
K: G
z| B3 AGA| B2G g2e| dBG E2D| EAA A2c|
BGG AGG| BGG g2e| dBG E2D| EGG G2 :|
d| gfg agf| gfe dBG| cBA BAG| EAA A2D|
E/F/GG G2e| dBG A2B| EGc B2A| BGG G2 :|
